X: 1443
T: The Bashful Bachelor
M:C|
L:1/8
N:"collected by J. O'Neill"
B:O'Neill's 1443
Z:"Transcribed by Bob Safranek, rjs@gsp.org"
Z:Ornament (~) is a mordant.
K:D
D2 FA     d2 AF  | d2 (fd)  ecAc | d2 (Ad)   BAGF   | EFGE (~FD) D2  |
D2 FA     d2 AF  | d2 (fd)  ecAc | defg     a2 (af) | bgeg  (fd) d2  ||
d2 dg ((3fga) fd | g2  bg  e2 cA | d2 dg ((3fga) fd | ecAc   d2 (FA) |
d2 dg ((3fga) fd | g2  bg  e2 fg | afge      fdec   | dBAG  (FD) D2  |]


